images/logo.svg

<svg enable-background="new 0 0 136.23 80.95" viewBox="0 0 136.23 80.95" xmlns="http://www.w3.org/2000/svg"><path d="m.85 80.09c-.57-.56-.85-1.22-.85-1.98v-73.68c0-.83.26-1.53.79-2.1s1.21-.85 2.05-.85h32.13c9.84 0 17.56 2.23 23.16 6.7s8.4 11.01 8.4 19.64-2.8 15.08-8.4 19.36-13.32 6.41-23.16 6.41h-12.95v24.52c0 .76-.27 1.42-.79 1.99-.53.57-1.21.85-2.04.85h-16.35c-.76 0-1.42-.29-1.99-.86zm33.55-42.74c3.1 0 5.54-.81 7.32-2.44s2.67-4.03 2.67-7.21c0-2.95-.81-5.34-2.44-7.15-1.63-1.82-4.14-2.72-7.55-2.72h-12.72v19.53h12.72z" fill="#222638"/><path d="m72.26 80.09c-.57-.57-.85-1.23-.85-1.99v-8.51c0-2.27.95-4.16 2.84-5.68l10.55-10.32c7.19-5.45 12.62-9.69 16.29-12.72s6.47-5.77 8.4-8.23 2.9-4.79 2.9-6.98c0-5.6-2.8-8.4-8.4-8.4-2.95 0-5.22.89-6.81 2.67s-2.65 3.99-3.18 6.64c-.45 1.74-1.74 2.61-3.86 2.61h-14.99c-.68 0-1.27-.24-1.76-.74-.49-.49-.74-1.04-.74-1.65.15-5 1.53-9.52 4.14-13.57s6.26-7.27 10.96-9.65c4.7-2.38 10.11-3.57 16.24-3.57 6.36 0 11.84 1.02 16.46 3.07 4.62 2.04 8.12 4.92 10.5 8.63s3.58 8.02 3.58 12.94c0 5.45-1.69 10.37-5.05 14.76-3.37 4.39-8.5 9.16-15.38 14.3l-9.42 9.42h28.72c.83 0 1.51.27 2.04.79.53.53.79 1.21.79 2.04v12.15c0 .76-.27 1.42-.79 1.99-.53.57-1.21.85-2.04.85h-59.15c-.76.01-1.42-.28-1.99-.85z" fill="#cbdc53"/></svg>

<?xml version="1.0" encoding="utf-8"?>
<!-- Generator: Adobe Illustrator 24.0.2, SVG Export Plug-In . SVG Version: 6.00 Build 0)  -->
<svg version="1.1" id="Layer_1" xmlns="http://www.w3.org/2000/svg" xmlns:xlink="http://www.w3.org/1999/xlink" x="0px" y="0px"
	 viewBox="0 0 136.23 80.95" style="enable-background:new 0 0 136.23 80.95;" xml:space="preserve">
<style type="text/css">
	.st0{fill:#222638;}
	.st1{fill:#CBDC53;}
</style>
<g>
	<path class="st0" d="M0.85,80.09C0.28,79.53,0,78.87,0,78.11V4.43C0,3.6,0.26,2.9,0.79,2.33C1.32,1.76,2,1.48,2.84,1.48h32.13
		c9.84,0,17.56,2.23,23.16,6.7c5.6,4.47,8.4,11.01,8.4,19.64c0,8.63-2.8,15.08-8.4,19.36c-5.6,4.28-13.32,6.41-23.16,6.41H22.02
		v24.52c0,0.76-0.27,1.42-0.79,1.99c-0.53,0.57-1.21,0.85-2.04,0.85H2.84C2.08,80.95,1.42,80.66,0.85,80.09z M34.4,37.35
		c3.1,0,5.54-0.81,7.32-2.44c1.78-1.63,2.67-4.03,2.67-7.21c0-2.95-0.81-5.34-2.44-7.15c-1.63-1.82-4.14-2.72-7.55-2.72H21.68v19.53
		H34.4z"/>
	<path class="st1" d="M72.26,80.09c-0.57-0.57-0.85-1.23-0.85-1.99v-8.51c0-2.27,0.95-4.16,2.84-5.68L84.8,53.59
		c7.19-5.45,12.62-9.69,16.29-12.72c3.67-3.03,6.47-5.77,8.4-8.23c1.93-2.46,2.9-4.79,2.9-6.98c0-5.6-2.8-8.4-8.4-8.4
		c-2.95,0-5.22,0.89-6.81,2.67c-1.59,1.78-2.65,3.99-3.18,6.64c-0.45,1.74-1.74,2.61-3.86,2.61H75.15c-0.68,0-1.27-0.24-1.76-0.74
		c-0.49-0.49-0.74-1.04-0.74-1.65c0.15-5,1.53-9.52,4.14-13.57c2.61-4.05,6.26-7.27,10.96-9.65C92.45,1.19,97.86,0,103.99,0
		c6.36,0,11.84,1.02,16.46,3.07c4.62,2.04,8.12,4.92,10.5,8.63c2.38,3.71,3.58,8.02,3.58,12.94c0,5.45-1.69,10.37-5.05,14.76
		c-3.37,4.39-8.5,9.16-15.38,14.3l-9.42,9.42h28.72c0.83,0,1.51,0.27,2.04,0.79c0.53,0.53,0.79,1.21,0.79,2.04v12.15
		c0,0.76-0.27,1.42-0.79,1.99c-0.53,0.57-1.21,0.85-2.04,0.85H74.25C73.49,80.95,72.83,80.66,72.26,80.09z"/>
</g>
</svg>
